-----BEGIN PGP PUBLIC KEY BLOCK-----

mQINBGqkmoABEADXrJb9jpWm83cjxH5P+D1hZ5ToNQ4WH4hmNo2j/PCeSwaGUJkv
08Z2WFDlTlR+JaKmsFH/ZXskDlzFP6Y0PdwesBo5tYsJLsJGhC8Mc8Dm/vaqkE/F
DNGw5v9kIojPkxF1nVhQnvizTC1E5CDnjcD/elDf5UNtJ4qOomXSYcGdIJOTiAwg
TGV6q2qso6uyZBqGpEAo9602c2BjvB/jZ7INP5MsXKJXhkctmJ23HaFSAJpyeZyr
HJGwIuZIL2cNgPxucDucmwPILG/MEz4dCwVJvLsVvKdOS2RMkdtZwD3+EIm5Wav+
p1KGd2ech6ObnpsUn6DsqOyRzGcYwdxmxt9WZWkBCYDlNgvUVj1A0oYyvKK67KTN
FWXkt7Z+l4BmN9vQb6k2SvfPp9UXzynHyyuNHVdqSYmixBusyk/mOha14RatouX+
BKDmoIAi+ry+E8dwCZutThSVODX69nHXYOi9k9FmNFBfnZBkhZWwyb11dwbVG/cx
7HtVtE1AZOFHfOhfULcbwb+dtCcgcm+12R/f0SFnPYQadNIgzTyfZDmrcBbv+vR+
RgPjzuNKUvZ/QZWZkn4g7nVIc9dTZ8Q7f/iNN1lz2SaoZCUgEahuh49LoxSW6FKE
5rXbH4YLQ3NgfHyMqU+Hu3/zmZfTZEBMrXUrohqbzx2sz6drO/lWNst5TwARAQAB
tDhTT0ZUU0VDIEdyb3VwIDMwIChTT0ZUU0VDKSA8YmhhbnVzZW5ldmlyYXRobmVA
Z21haWwuY29tPokCbQQTAQgAVxYhBLtjObA5VBliahZ1GRJ6AZMFKrD+BQJqpJqA
GxSAAAAAAAQADm1hbnUyLDIuNSsxLjEyLDIsMQIbAwULCQgHAgIiAgYVCgkICwIE
FgIDAQIeBwIXgAAKCRASegGTBSqw/tJPD/9zIDsqUrt7nto55ipOjfHjj/Qsgz35
djeyc9BBIxJVjVWCkeKqpAq0BQXIS/Y0qv4MJmi4vRbcUa6ZbDiHA1F8/vGhRgnB
oVjAHi0FCCFh77NOMRFFlpR0bLgH1sN/1PkFc31807+FdT2l2wjAz2g/lx6rOCKR
8RbQlceuYiGlAw+drOzIlwLFmqDTidhlJ9nDNFVz3eyML1sMjlzfpwB8rKHSKw3w
qJA1pkQriVQhmIDsh+FfwOPGp8bhw3qeEI0Ob/RxygHZGqBEEqpv9qYxIoLEqFGd
MFjrMI8fanaqbETyBTtjXSlHcKpQh6Q+0baSPwTQoklIXCIUkkE3wiYC881YiNHk
OKlcepv4WmD+xUJvOtvlt4MmqnEPCh/aXwBarow+yhNaA+YlQU17JYgU4j6kg4xV
5yylIbXsnuF1h5HNdGeCvh/1+fyoGls+ToISN+MpeqKO9VePAjfPI8IPFdMv/sdP
r07mFUMqjgaZaJbd4ZLfws0dZO69Uq/a1gJ3DwOktoXVD9Bod/CBJtFjCEvkf5f6
+QNXT7A93VHR15erUdjnHUa5KBFf7UVE2fcm/pFlGFwKst6NIdo2HS+SMbHFOyAq
Z0uZU6UIkDGmeRBinOvh/Duyrs+Yl3sh1YUmNFnWNcoUDUrHdSef1j3WBjrxeHmE
CpF9ArbSP/2hkbkCDQRqpJqAARAAp5kXmtIiQyX//bFksej/e7gYJerHH/AmUSN0
IuDHbjPAujRD8hpMuJOXW55SJpBRbBdxApTYcFFm2XMFbFSls8hEANqoNcnhKkLq
Xcos/DjcncsrmAkeynItaR6JKV60hjSuWmnowrabWc3Ab/2/9c+R2UW/elWIO4/r
InBPCEFLux3jdMHSVm9+LohpcVP7vPlKnsdbdQQrrUqyg192KtIVMuNwhHMQ43qb
kUA7nd1HtykqGhLngLucmJ/ZXXxaQC9m/2fAWzhLTCLxLX195aNUinc7w1/zUKpw
2fjIWA3ljTK2OxyLTNL+umPXhaC+Uv3xNSxB0ku7jRIsENtT/OGaNxrDDMYWs0iq
wrg6Vz1cUa/3WdqjaPVC91Gyns5JphXLuuPHfxreuX2Og5R0NgkPlvPOmY/K9s22
iiNDNt+APsggK6aNueyLY/h1q/kn8py6W4IwUVQ4nIWwg8mEqksQVFx53oIhICQ1
GMr0Z7KqBdR9uBmiwOLwkcCQRrpddPKIGfZmyXGjPzbuX2nQ6xOYpbooI2Is6IxO
/igEIfFwrQRRzUiPmNw3USt0e0P0xqTxkRBROwePS8nfMxIcnOgQVUDxMcwFleme
IYvZw9x5NR0buXLqgstYnZ6RHMkF8vkmQgMjaEiuJOUJJ5Zn3KcAAtpym8PboErd
wHbhVRUAEQEAAYkCUgQYAQgAPBYhBLtjObA5VBliahZ1GRJ6AZMFKrD+BQJqpJqA
GxSAAAAAAAQADm1hbnUyLDIuNSsxLjEyLDIsMQIbDAAKCRASegGTBSqw/qGXD/9E
8t7jmSlgczJLLKH4Vr+Yxbs2u91xt+ORhybVbxEsSXH2PSGpooZCIX16vncG3BTA
7Iu+Pr7aoEbnfj4ZEcOMu02EPLo6LXJP+ZB1PDRqPo/jW309hx5WOUeweGyFvhkM
P5lt0286U5iBG8hLNQNMmQEUZCy0nAPz8oefMO0OHYAO+cwcoioKHuQ/ESRUuRRl
hrxC3cFfEzyvmNsldrdXTKDcb5kvbo1gx8v2jazrC3Eox9LdB5ptxPmdvLu2xWk7
+v2gxmynSHsnnEsduF4jse4sC9NEm7YU55y2zIJYeRLPNNx9wMXavbQfB091Oegc
04gwbBJ1M9djMwdc9VZ2tjqo1NUg8tSRGZ/o4CmNZDFHd6LLZxh630jQy1fG4aDX
gbHf0zEpD2XTPQ+j2nZRA6tYKSNi0LW4HJo6Ow5CZqVB2NiCOsIpCWuBNhssQS1a
a7vTGFhr6PixNeTiYKePiDzuOnW3+mO8JDnS+cNNw+UEb/bPvWMQqt0VBytmUe0F
6OZSUuoMCqcOU1DKng4Ase5+DXUWVyxNPeX9MI5k0pi+aOpf3SnN4Vwy/lWX1yPR
f1PMbyXqkVbisJb9QYF+xPd9kM4laNhR1BB/t4XFkzfAMTpxyVaF9JR63kDAH2wF
8sgoCpjxij3wbwzCSzttvuc7DNczkOTefUTZ1UJjOg==
=kLeC
-----END PGP PUBLIC KEY BLOCK-----
