-----BEGIN PGP PUBLIC KEY BLOCK-----

mQINBGqYG5QBEADGrcv82a5/I+PJvBtj6yaVeh/6/w1bekSz4VYC8Tz+ljDsprWC
wb30rUT+FaJ1F0fq/1FqAler1tF+OiMKIExa/VaTbt0JKX7IAfvQGmhkrX9ugSRs
jvu0YylF5cx/4C8UvsHmkH/64rWZYkBCjD/iYAYTxlHKfE8tEDu+YPt9Fb3/i7PR
+1p5nwdZcftGW3RF17UbsPVhsHITweLXsCSH2H1c4wE5NX9S/xMaMyg3HY6dRIw9
WsJ3yy275f6HNr42ddviCmL8uWsTCg0+iRt8gZrP0LxUSZw5WAmftw1K/U77XgVY
u/Ql3aQ0CSCnUdymxVZi9/il69evr8drIqJTwVM4IJUxdvNZvaXyqvtSLLHjd6c3
bVDFicylf4i4byT/pF03FOwXOiEeiZRIo7xBT6O811mEDbFXMjRb2uCaq4V4AXXI
kREe7cudxelSKlg4Yk5jC2UGu8C/NIUWuNaxgNFcU0T4cJ9zNYKXqxVmcfbgnCAw
I8qPB5bnCc/mhqt1eLi25mYP79BbV1e0LqJPTS8VccVSK3LYt7IpTCsePNSsyYjw
4FGFJ6F/kO6/aPIGB6dOWwDnWwcG2+9D67IH0OS1cKWJ0BV+gt+5ojZRvxG6GkTI
H1ZeEnf2iz0CJbwWkjMIzmE0Dn7MQxauQFcF80RU7qfJLF4L6rIftOlnQQARAQAB
tCBhbWlyZXphIDxhbWlycmV6YS5zdmVAZ21haWwuY29tPokCVAQTAQgAPhYhBMLW
J5p4Xqh6/ZspY7a3fZa6fhEKBQJqmBuUAhsDBQkB4TOABQsJCAcCBhUKCQgLAgQW
AgMBAh4BAheAAAoJELa3fZa6fhEK+40P/RP99HJf81AldwFukWyoxh7pJ2C8Po1+
LHwKmb+T52+I7FwDbqUGiqSDwiI5EdslQ2MIaDDSz1BZEl5PSDxpmE9qcFGMEEEE
wgwhbQdcLoMeglSPunq6rDb5bZKR3ZFxLT+MjdTfq6fMumUUDF1Q9hhNXkl/CpiM
snPf/3evH5WrUxSJ0gYTUt2CBmQUsgMCRdBojW0KOgxjKln6mugtAGSfIKyPMyM4
It3KHmRbf8nWhjytTSgHWLMIiqhLFnSoCcaUykbVPhP9YnP/lOjNvVce1TKcLR9i
hu4iUWFY12CPbk3dq00tur3pPRpnHciH/mGJtvFUAJCL2eOkmQ8dmFwVnStyiMXm
6vIP79s9KaJF8t0p1dKzCmYb7bI1liUMPVa8vg3XAmrw6FXgdPetmGKD86Bf/Lvj
Jr8gGBp40zM5c4S2n8zdjvyILpAIMdJqeWrek0k0MU5Q9qGsGazR5z7CheO2oolg
EWfOAq7L66xv24v9H/eyqTCUjJo0iaKgA0sp4eFDP+kLxLCod92i5O/CyOZ4/Hvn
dWZXBNW1m+xbdSMb4dT/LcCzs1C2DfY5RI++2jh/xZYEtu3ectfiY081rgj+NKk3
hRX4vGa0zaphi7aAIIbmNBcLaDR9qLcf2B/cGjX28A/nyY1fTCiLw7cKcyHhCznc
Un7jmIgGakXUuQINBGqYG5QBEADX+iDCekrFBMkT4crEeWBB/0WOw485xnogCxbt
1f6daMTSUAosEbZuh/09kSgTMcEP2dET38NRZ9oh+fF71JW44FaYLxay1pyQLydE
D+JV8+L/3R9LX29sN/MS89XME87kcXLc4D810DMvuh8G3RSekvuQGgtGgeKiupj7
UIDltsThHR0bLLzVCBa2gVR6rZuEg4dUrCHJXJa3gUw3s0Td4pJKSwmLwdGnl1lT
1IO3PU2q+K8PNi4bVzDsItEVcH2oaAaWCoz65VoOONrvVasZS0ztKMOpIOU+PmnL
Ra4DXXq6vgMzVMHwcwfB+JNip6DsunFNo9Rn5/pNMI3yUGLu4HDkbNsJzcTkoF/j
wK9qML0+JIamiqk/VoQ65+o7rL/cJ3qZRfR3UxV/+2uLb4Zu9TIlKAE1T91xfz0W
D1SQ4pu2lykYIlvA+jZK7ikO18HK3syaqQZs6FaV+J8yEr1kywEBu5NoEeNZpAtr
29VndPBJ/xSwq2bN4K9pZlw7cQcX2J7vtpcwBmoM34NFTci1K9p5q0YtCMjgT+iY
N07it1sK07UNerZJODftZ9osoEMIzhYpQgAKUDwVUtbHvRvaBuipsCSf/1CnsqM3
8JiiCCkQRCxAXR2z+OKzW1exHcnyc8890QhvNQr9YwVGdyt51kF05qOmR1AzOj3M
81SqrQARAQABiQI8BBgBCAAmFiEEwtYnmnheqHr9myljtrd9lrp+EQoFAmqYG5QC
GwwFCQHhM4AACgkQtrd9lrp+EQoD3w//W10zGo6OryGeQ2VaY3CeNORQWUwHa04n
cS+a8Ns1waEIhO1hpf3dG0bY1t/peLka4lb1p90MvRU9Ydf4V8GEJjA3pgBHFNSo
P/kkVIfRCmvLBgx2iQlGPCo7UHrxlqEjaIvd8UpAeKvYRGRgV3chM37dYtK9CrFm
JpVFfDmSuw5rbDdkLU+fmYijRram/OnoHIuCFr3UxjCpPKUBIklKC8l/byh5vfrf
bYJWlPByEPT4Qs31zCsIbKSTkPz3Kf8uuKT6suYeYfBzGkR1P/ROpEAphSFgnA7p
QEevhi2NPCfIftLlW+kygoMhi9h76/deGoI0ku+5x/79Z8VYYQbikV0KMHavY1CV
Xx2WPmHjH4qzvNZ9Ztr1MtJtrHFz9bx6ArGZKrEnpiCKJ/vz6ysxl1Xk4W92VUTV
Ipiz5av+OvxCQqvkdA2TQIT47EIwmqvABeufA2UkxPkJSsIQVz6Epu4gpBuU6dij
CNUxTU04Fww3yfjX3Y/wopPTd4zuqJ7+w9q5OMHbQq+QgRQbdL74XJPpAWyWoiQ2
jOUJFrnVvbPm6HqKmZ5qeTXuMWZgzR2+e4pNpKl+RVARi5hfMsv2Gn6t4wjWHXNr
YC8QutR5qMcbedHZdwIOI0QEjFl+z77CiRGIazKTuuuieL1Az3BtyJX4855Xj6Cd
w51zjTo58IU=
=vpBZ
-----END PGP PUBLIC KEY BLOCK-----
